**kern	**kern	**dynam
*part1	*part1	*part1
*staff2	*staff1	*
*I"Piano	*	*
*clefF4	*clefG2	*
*k[]	*k[]	*
=1	=1	=1
*	*^	*
4FF	2A 2a	8r	.
.	.	4c 4f	.
4C 4F	.	.	.
.	.	8c 8f	.
=	=	=	=
!	!LO:TX:a:i:t=dol.	!	!
!	!LO:TX:b:i:t=riten.	!	!
4CC#X 4C#X	4B-X 4b-X	8r	>
.	.	4e 4g	.
4DD 4D	4A 4a	.	.
.	.	8e 8g	.
=	=	=	=
4DD 4D	2A 2a	8r	.
!	!LO:TX:b:i:t=a tempo	!	!
.	.	4d 4f	.
4D 4F	.	.	]
.	.	8d 8f	.
=	=	=	=
4FF 4F	4c 4cc	8r	.
.	.	4e 4g	.
4F 4G	4B 4b	.	.
.	.	8d 8g	.
=	=	=	=
!	!	!	!LO:DY:a
4EE 4E	4d 4dd	8rdd	<
.	.	4e 4g	.
4E 4G	4c 4cc	.	[[
.	.	8e 8g	.
=	=	=	=
!	!	!	!LO:DY:a
4FF 4F	4.g 4.gg	8raa	f
.	.	4a 4dd	.
4F 4A 4d	.	.	.
.	8f 8ff	8a 8dd	.
=	=	=	=
!	!	!	!LO:DY:a
4GG 4G	2e 2ee	8rff	mf <
.	.	4g 4cc	.
4G 4c	.	.	.
.	.	8g 8cc	.
=	=	=	=
4FF 4F	2d 2dd	8rdd	.
.	.	4g 4b	.
4F 4G	.	.	[[
.	.	8g 8b	.
*	*v	*v	*
=	=	=
*-	*-	*-
!!!system-decoration: {(s1,s2)}
